Obsidian-SemiLight/actions/22s/character-set.svg

<svg viewBox="0 0 22 22" xmlns="http://www.w3.org/2000/svg"><path d="m4.5 3a1.499996 1.499996 0 0 0 -1.5 1.5 1.499996 1.499996 0 0 0 1 1.412109v.087891 7 6h1v-6h7v1h7v-7h-6v-1h-8v-.087891a1.499996 1.499996 0 0 0 1-1.412109 1.499996 1.499996 0 0 0 -1.5-1.5m.5 4h7v5h-7zm8 1h5v5h-5z" fill="#4d4d4d"/></svg>

<svg xmlns="http://www.w3.org/2000/svg" viewBox="0 0 22 22">
  <defs id="defs3051">
    <style type="text/css" id="current-color-scheme">
      .ColorScheme-Text {
        color:#4d4d4d;
      }
      </style>
  </defs>
 <path 
     style="fill:currentColor;fill-opacity:1;stroke:none" 
	 d="M4.5 3A1.499996 1.499996 0 0 0 3 4.5 1.499996 1.499996 0 0 0 4 5.912109V6 13 19H5V13H12V14H19V7H13V6H5V5.912109A1.499996 1.499996 0 0 0 6 4.5 1.499996 1.499996 0 0 0 4.5 3M5 7H12V12H5V7M13 8H18V13H13V8"
	 class="ColorScheme-Text"
     />
</svg>
